lib/flags/m/470.svg

<svg xmlns="http://www.w3.org/2000/svg" fill="none" viewBox="0 0 20 15"><path fill="#F7FCFF" d="M0 0H20V15H0z"/><mask id="470_svg__a" width="20" height="15" x="0" y="0" mask-type="alpha" maskUnits="userSpaceOnUse"><path fill="#fff" d="M0 0H20V15H0z"/></mask><g mask="url(#470_svg__a)"><mask id="470_svg__b" fill="#fff"><path fill-rule="evenodd" d="M6.25 3.80005H3.75V5.67038C3.47464 5.7357 3.2698 5.98319 3.2698 6.27852C3.2698 6.28573 3.26992 6.2929 3.27016 6.30005H1.25V8.80005H3.33171C3.41244 8.96716 3.56537 9.09285 3.75 9.13665V11.3H6.25V9.14469C6.45225 9.11041 6.62144 8.97896 6.70788 8.80005H8.75V6.30005H6.76942C6.76966 6.2929 6.76979 6.28573 6.76979 6.27852C6.76979 5.9692 6.54508 5.71237 6.25 5.66234V3.80005Z" clip-rule="evenodd"/></mask><path fill="#A0A0A0" fill-rule="evenodd" d="M6.25 3.80005H3.75V5.67038C3.47464 5.7357 3.2698 5.98319 3.2698 6.27852C3.2698 6.28573 3.26992 6.2929 3.27016 6.30005H1.25V8.80005H3.33171C3.41244 8.96716 3.56537 9.09285 3.75 9.13665V11.3H6.25V9.14469C6.45225 9.11041 6.62144 8.97896 6.70788 8.80005H8.75V6.30005H6.76942C6.76966 6.2929 6.76979 6.28573 6.76979 6.27852C6.76979 5.9692 6.54508 5.71237 6.25 5.66234V3.80005Z" clip-rule="evenodd"/><path fill="#FECA00" d="M3.75 3.80005V3.17505H3.125V3.80005H3.75ZM6.25 3.80005H6.875V3.17505H6.25V3.80005ZM3.75 5.67038L3.89426 6.27851L4.375 6.16447V5.67038H3.75ZM3.27016 6.30005V6.92505H3.91667L3.89481 6.27891L3.27016 6.30005ZM1.25 6.30005V5.67505H0.625V6.30005H1.25ZM1.25 8.80005H0.625V9.42505H1.25V8.80005ZM3.33171 8.80005L3.89448 8.52817L3.72388 8.17505H3.33171V8.80005ZM3.75 9.13665H4.375V8.64257L3.89426 8.52853L3.75 9.13665ZM3.75 11.3H3.125V11.925H3.75V11.3ZM6.25 11.3V11.925H6.875V11.3H6.25ZM6.25 9.14469L6.14554 8.52848L5.625 8.61673V9.14469H6.25ZM6.70788 8.80005V8.17505H6.31571L6.14511 8.52817L6.70788 8.80005ZM8.75 8.80005V9.42505H9.375V8.80005H8.75ZM8.75 6.30005H9.375V5.67505H8.75V6.30005ZM6.76942 6.30005L6.14478 6.27891L6.12292 6.92505H6.76942V6.30005ZM6.25 5.66234H5.625V6.19031L6.14554 6.27855L6.25 5.66234ZM3.75 4.42505H6.25V3.17505H3.75V4.42505ZM4.375 5.67038V3.80005H3.125V5.67038H4.375ZM3.8948 6.27852L3.89426 6.27851L3.60574 5.06226C3.05501 5.1929 2.6448 5.68705 2.6448 6.27852H3.8948ZM3.89481 6.27891L3.8948 6.27852H2.6448C2.6448 6.29278 2.64504 6.307 2.64552 6.32118L3.89481 6.27891ZM1.25 6.92505H3.27016V5.67505H1.25V6.92505ZM1.875 8.80005V6.30005H0.625V8.80005H1.875ZM3.33171 8.17505H1.25V9.42505H3.33171V8.17505ZM3.89426 8.52853L3.89448 8.52817L2.76894 9.07193C2.93005 9.4054 3.23493 9.65681 3.60574 9.74477L3.89426 8.52853ZM4.375 11.3V9.13665H3.125V11.3H4.375ZM6.25 10.675H3.75V11.925H6.25V10.675ZM5.625 9.14469V11.3H6.875V9.14469H5.625ZM6.35446 9.7609C6.76086 9.69201 7.09825 9.42876 7.27064 9.07193L6.14511 8.52817L6.14554 8.52848L6.35446 9.7609ZM8.75 8.17505H6.70788V9.42505H8.75V8.17505ZM8.125 6.30005V8.80005H9.375V6.30005H8.125ZM6.76942 6.92505H8.75V5.67505H6.76942V6.92505ZM6.14479 6.27852L6.14478 6.27891L7.39406 6.32118C7.39454 6.30701 7.39479 6.29279 7.39479 6.27852H6.14479ZM6.14554 6.27855L6.14479 6.27852H7.39479C7.39479 5.65926 6.94509 5.14626 6.35446 5.04613L6.14554 6.27855ZM5.625 3.80005V5.66234H6.875V3.80005H5.625Z" mask="url(#470_svg__b)"/><path fill="#E31D1C" fill-rule="evenodd" d="M10 0H20V15H10V0Z" clip-rule="evenodd"/><mask width="10" height="15" x="10" y="0" mask-type="alpha" maskUnits="userSpaceOnUse"><path fill="#fff" fill-rule="evenodd" d="M10 0H20V15H10V0Z" clip-rule="evenodd"/></mask></g></svg>

<svg xmlns="http://www.w3.org/2000/svg" fill="none" viewBox="0 0 20 15"><path fill="#F7FCFF" d="M0 0h20v15H0z"/><mask id="470_svg__a" width="20" height="15" x="0" y="0" maskUnits="userSpaceOnUse"><path fill="#fff" d="M0 0h20v15H0z"/></mask><g mask="url(#470_svg__a)"><mask id="470_svg__b" fill="#fff"><path fill-rule="evenodd" d="M6.25 3.8h-2.5v1.87a.625.625 0 00-.48.63H1.25v2.5h2.082c.08.167.233.293.418.337V11.3h2.5V9.145a.626.626 0 00.458-.345H8.75V6.3H6.77a.625.625 0 00-.52-.638V3.8z" clip-rule="evenodd"/></mask><path fill="#A0A0A0" fill-rule="evenodd" d="M6.25 3.8h-2.5v1.87a.625.625 0 00-.48.63H1.25v2.5h2.082c.08.167.233.293.418.337V11.3h2.5V9.145a.626.626 0 00.458-.345H8.75V6.3H6.77a.625.625 0 00-.52-.638V3.8z" clip-rule="evenodd"/><path fill="#FECA00" d="M3.75 3.8v-.625h-.625V3.8h.625zm2.5 0h.625v-.625H6.25V3.8zm-2.5 1.87l.144.608.481-.114V5.67H3.75zm-.48.63v.625h.647l-.022-.646-.625.021zm-2.02 0v-.625H.625V6.3h.625zm0 2.5H.625v.625h.625V8.8zm2.082 0l.562-.272-.17-.353h-.392V8.8zm.418.337h.625v-.494l-.48-.115-.145.609zm0 2.163h-.625v.625h.625V11.3zm2.5 0v.625h.625V11.3H6.25zm0-2.155l-.104-.617-.521.089v.528h.625zm.458-.345v-.625h-.392l-.17.353.562.272zm2.042 0v.625h.625V8.8H8.75zm0-2.5h.625v-.625H8.75V6.3zm-1.98 0l-.625-.021-.022.646h.646V6.3zm-.52-.638h-.625v.528l.52.089.105-.617zm-2.5-1.237h2.5v-1.25h-2.5v1.25zm.625 1.245V3.8h-1.25v1.87h1.25zm-.48.608l-.29-1.216c-.55.13-.96.625-.96 1.216h1.25zm0 0h-1.25v.043l1.25-.042zm-2.645.647h2.02v-1.25H1.25v1.25zM1.875 8.8V6.3H.625v2.5h1.25zm1.457-.625H1.25v1.25h2.082v-1.25zm.562.353l-1.125.544c.161.333.466.585.837.673l.288-1.217zm.481 2.772V9.137h-1.25V11.3h1.25zm1.875-.625h-2.5v1.25h2.5v-1.25zm-.625-1.53V11.3h1.25V9.145h-1.25zm.73.616a1.25 1.25 0 00.916-.69l-1.126-.543.21 1.233zM8.75 8.175H6.708v1.25H8.75v-1.25zM8.125 6.3v2.5h1.25V6.3h-1.25zm-1.356.625H8.75v-1.25H6.77v1.25zm-.624-.647l1.25.043v-.043h-1.25zm0 0h1.25a1.25 1.25 0 00-1.04-1.232l-.21 1.233zM5.626 3.8v1.862h1.25V3.8h-1.25z" mask="url(#470_svg__b)"/><path fill="#E31D1C" fill-rule="evenodd" d="M10 0h10v15H10V0z" clip-rule="evenodd"/></g></svg>
